X: 88
M: 6/8
L: 1/8
K: Am
E |\
|: B |\
(c>de/f/) g2a | gec gec | G>AB/c/ d2e | dge dBG |\
(c>de/f/) g2a | gec de^g | a2A AB^G | A3- A2 H:|

